X: 466
%
U:~=!turn!
T: Mrs. Dundas of Arniston
C:Wm. Gow
O:Scotland
B:Keith Norman MacDonald : "The Skye collection of the best reels & strathspeys extant" : 1887
Z:Ralph Palmer
N:Manuscript has 3 eighth notes at the beginning of the 2nd measure, with a turn over the 3rd eighth note. I've changed the 3rd eighth note to a quarter. rp.
R:Reel
M:C|
L:1/8
K:C
G | ~c2 (ce) dBG_B | AF ~F2 GE{/B,}CE | ~F2 FA {/^F}GE{/B,}CE | {/E}FDCB, {/B,}C2 C :| f | (eg)ec Bd g2 | Ac f2 Gc e2 |
FAdF EGce | fdcB ~c2 (cf) | (eg)ec BdgB | AcfA GceG | FAdF EGcE | FD{/B,}CB, {/B,}C2 C |]


